X:1
T:Lamplighter's Hornpipe
L:1/8
M:4/4
I:linebreak $
K:A
V:1 treble
V:1
 "A"ecec eagf | ecec eagf | e2 ce "F#m"fedc | "Bm"d2 B2 "E"B2 cd |$ 
"A"ecec eagf | ecec eagf | efde "E"cABG |"A" E2 A2 A2 cd |$ 
"A"edcd e2 fe | "D"dcBc "E"d2 ed |  "A"cAcA dcBA | "E"GABc B2 cd |$ "A"edcd e2 fe | "D"dcBc "E"d2 ed | %13
 "A"caAc "E"BAGB | "A"A2 c2 A2 cd :| %15
